assets/images/icon-medium.svg

<svg height="20" viewBox="0 0 20 20" width="20" xmlns="http://www.w3.org/2000/svg"><g fill="none"><path d="m0 0h20v20h-20z" fill="#12100e"/><path d="m4.77272618 6.68879543c.01669308-.16493315-.0462031-.32795122-.16936005-.43895748l-1.2545189-1.51126788v-.22574956h3.89528119l3.01084538 6.60317459 2.6470349-6.60317459h3.7133759v.22574956l-1.0726136 1.02841466c-.0924711.07048683-.1383415.18633693-.1191793.30099941v7.55633946c-.0191622.1146625.0267082.2305125.1191793.3009994l1.0475233 1.0284146v.2257496h-5.2689794v-.2257496l1.0851588-1.0534979c.1066341-.106604.1066341-.1379581.1066341-.3009994v-6.10777977l-3.01711795 7.66294337h-.40771864l-3.51265293-7.66294337v5.13580247c-.02928722.2159236.04242479.4333114.19445043.5894572l1.41133376 1.7119342v.2257495h-4.00191529v-.2257495l1.41133376-1.7119342c.15091876-.1564047.21844919-.3752346.18190524-.5894572z" fill="#fff"/></g></svg>

<svg xmlns="http://www.w3.org/2000/svg" width="20" height="20" viewBox="0 0 20 20">
  <g fill="none">
    <rect width="20" height="20" fill="#12100E"/>
    <path fill="#FFF" d="M4.77272618,6.68879543 C4.78941926,6.52386228 4.72652308,6.36084421 4.60336613,6.24983795 L3.34884723,4.73857007 L3.34884723,4.51282051 L7.24412842,4.51282051 L10.2549738,11.1159951 L12.9020087,4.51282051 L16.6153846,4.51282051 L16.6153846,4.73857007 L15.542771,5.76698473 C15.4502999,5.83747156 15.4044295,5.95332166 15.4235917,6.06798414 L15.4235917,13.6243236 C15.4044295,13.7389861 15.4502999,13.8548361 15.542771,13.925323 L16.5902943,14.9537376 L16.5902943,15.1794872 L11.3213149,15.1794872 L11.3213149,14.9537376 L12.4064737,13.9002397 C12.5131078,13.7936357 12.5131078,13.7622816 12.5131078,13.5992403 L12.5131078,7.49146053 L9.49598985,15.1544039 L9.08827121,15.1544039 L5.57561828,7.49146053 L5.57561828,12.627263 C5.54633106,12.8431866 5.61804307,13.0605744 5.77006871,13.2167202 L7.18140247,14.9286544 L7.18140247,15.1544039 L3.17948718,15.1544039 L3.17948718,14.9286544 L4.59082094,13.2167202 C4.7417397,13.0603155 4.80927013,12.8414856 4.77272618,12.627263 L4.77272618,6.68879543 Z"/>
  </g>
</svg>
